;FLAVOR:RepRap
;TIME:7902
;Filament used: 12.8206m
;Layer height: 0.4
;Generated with Cura_SteamEngine 3.3.0
T0
M104 S225
M109 S225
M82 ;absolute extrusion mode
G28
G1 Z15.0 F10000
G92 E0
M83 ;relative extrusion mode
G1 F2700 E-3.2
;LAYER_COUNT:67
;LAYER:0
M107
G0 F3600 X11.945 Y16.206 Z0.2
;TYPE:SKIRT
G1 F2700 E3.2
G1 F1800 X8.05 Y19.876 E0.22249
G1 X6.235 Y21.74 E0.10817
G1 X2.658 Y25.737 E0.223
G1 X-.676 Y29.916 E0.22226
G1 X-3.747 Y34.247 E0.22073
G1 X-6.589 Y38.778 E0.22237
G1 X-9.192 Y43.501 E0.22421
G1 X-10.529 Y46.124 E0.1224
G1 X-10.872 Y46.709 E0.02819
G1 X-11.281 Y47.249 E0.02816
G1 X-11.557 Y47.55 E0.01698
G1 X-11.764 Y47.76 E0.01226
G1 X-12.268 Y48.213 E0.02817
G1 X-12.821 Y48.605 E0.02818
G1 X-13.417 Y48.929 E0.0282
G1 X-14.36 Y49.274 E0.04175
G1 X-14.808 Y49.395 E0.01929
G1 X-15.471 Y49.533 E0.02816
G1 X-16.308 Y49.594 E0.03489
G1 X-71.466 Y49.588 E2.2932
G1 X-72.142 Y49.548 E0.02815
G1 X-72.81 Y49.429 E0.02821
G1 X-73.458 Y49.231 E0.02817
G1 X-74.279 Y48.853 E0.03758
G1 X-74.778 Y48.573 E0.02379
G1 X-75.348 Y48.206 E0.02819
G1 X-75.872 Y47.776 E0.02818
G1 X-76.341 Y47.287 E0.02817
G1 X-76.75 Y46.745 E0.02823
G1 X-77.092 Y46.16 E0.02817
G1 X-77.271 Y45.772 E0.01777
G1 X-77.455 Y45.331 E0.01987
G1 X-77.678 Y44.691 E0.02818
G1 X-77.825 Y44.029 E0.02819
G1 X-77.898 Y43.117 E0.03804
G1 X-77.896 Y-43.125 E3.58553
G1 X-77.856 Y-43.802 E0.0282
G1 X-77.737 Y-44.469 E0.02817
G1 X-77.633 Y-44.843 E0.01614
G1 X-77.54 Y-45.14 E0.01294
G1 X-77.3 Y-45.774 E0.02818
G1 X-76.987 Y-46.375 E0.02817
G1 X-76.45 Y-47.127 E0.03842
G1 X-76.225 Y-47.394 E0.01452
G1 X-75.758 Y-47.886 E0.0282
G1 X-75.237 Y-48.319 E0.02816
G1 X-74.668 Y-48.689 E0.02822
G1 X-73.816 Y-49.084 E0.03904
G1 X-73.417 Y-49.231 E0.01768
G1 X-72.768 Y-49.428 E0.0282
G1 X-72.1 Y-49.547 E0.02821
G1 X-71.429 Y-49.586 E0.02794
G1 X71.465 Y-49.588 E5.94084
G1 X72.142 Y-49.548 E0.0282
G1 X72.809 Y-49.429 E0.02817
G1 X73.458 Y-49.232 E0.0282
G1 X74.282 Y-48.851 E0.03774
G1 X74.782 Y-48.57 E0.02385
G1 X75.352 Y-48.203 E0.02819
G1 X75.876 Y-47.772 E0.02821
G1 X76.345 Y-47.283 E0.02817
G1 X76.753 Y-46.741 E0.0282
G1 X77.196 Y-45.944 E0.03791
G1 X77.374 Y-45.554 E0.01782
G1 X77.619 Y-44.922 E0.02818
G1 X77.787 Y-44.266 E0.02815
G1 X77.877 Y-43.594 E0.02819
G1 X77.893 Y-43.171 E0.0176
G1 X77.913 Y-14.335 E1.19886
G1 X77.835 Y-13.39 E0.03942
G1 X77.761 Y-12.944 E0.0188
G1 X77.611 Y-12.283 E0.02818
G1 X77.384 Y-11.644 E0.02819
G1 X77.084 Y-11.036 E0.02819
G1 X76.707 Y-10.459 E0.02866
G1 X76.454 Y-10.118 E0.01765
G1 X76.018 Y-9.598 E0.02821
G1 X75.525 Y-9.133 E0.02818
G1 X74.98 Y-8.73 E0.02818
G1 X74.659 Y-8.534 E0.01564
G1 X74.462 Y-8.423 E0.0094
G1 X73.852 Y-8.126 E0.02821
G1 X73.212 Y-7.902 E0.02819
G1 X72.551 Y-7.756 E0.02814
G1 X72.014 Y-7.695 E0.02247
G1 X67.414 Y-7.394 E0.19165
G1 X62.074 Y-6.828 E0.22326
G1 X56.77 Y-5.962 E0.22343
G1 X54.264 Y-5.443 E0.1064
G1 X49.021 Y-4.122 E0.22479
G1 X43.947 Y-2.533 E0.22105
G1 X38.957 Y-.655 E0.22167
G1 X34.09 Y1.499 E0.22128
G1 X29.332 Y3.934 E0.22221
G1 X24.723 Y6.634 E0.22208
G1 X20.298 Y9.571 E0.22081
G1 X16.033 Y12.766 E0.22155
G1 X11.945 Y16.206 E0.22213
G0 F3600 X11.615 Y15.83
G1 F1800 X7.702 Y19.516 E0.2235
G1 X5.868 Y21.4 E0.10931
G1 X2.273 Y25.417 E0.22412
G1 X-1.065 Y29.601 E0.22253
G1 X-4.176 Y33.989 E0.22363
G1 X-7.015 Y38.515 E0.22212
G1 X-9.629 Y43.257 E0.22512
G1 X-10.974 Y45.897 E0.12318
G1 X-11.304 Y46.455 E0.02695
G1 X-11.913 Y47.199 E0.03997
G1 X-12.12 Y47.409 E0.01226
G1 X-12.602 Y47.841 E0.02691
G1 X-13.134 Y48.211 E0.02694
G1 X-13.708 Y48.512 E0.02695
G1 X-14.49 Y48.791 E0.03452
G1 X-14.938 Y48.912 E0.01929
G1 X-15.573 Y49.042 E0.02695
G1 X-16.308 Y49.094 E0.03063
G1 X-71.466 Y49.088 E2.2932
G1 X-72.112 Y49.048 E0.02691
G1 X-72.749 Y48.929 E0.02694
G1 X-73.366 Y48.732 E0.02693
G1 X-74.034 Y48.416 E0.03072
G1 X-74.533 Y48.136 E0.02379
G1 X-75.077 Y47.785 E0.02692
G1 X-75.574 Y47.37 E0.02692
G1 X-76.016 Y46.896 E0.02695
G1 X-76.396 Y46.372 E0.02691
G1 X-76.809 Y45.58 E0.03714
G1 X-76.993 Y45.139 E0.01987
G1 X-77.205 Y44.527 E0.02693
G1 X-77.34 Y43.893 E0.02695
G1 X-77.398 Y43.117 E0.03235
G1 X-77.396 Y-43.125 E3.58553
G1 X-77.356 Y-43.772 E0.02695
G1 X-77.156 Y-44.694 E0.03922
G1 X-77.063 Y-44.991 E0.01294
G1 X-76.832 Y-45.596 E0.02692
G1 X-76.528 Y-46.168 E0.02693
G1 X-76.068 Y-46.805 E0.03267
G1 X-75.843 Y-47.072 E0.01452
G1 X-75.395 Y-47.541 E0.02697
G1 X-74.894 Y-47.951 E0.02691
G1 X-74.346 Y-48.296 E0.02692
G1 X-73.643 Y-48.615 E0.0321
G1 X-73.244 Y-48.762 E0.01768
G1 X-72.623 Y-48.948 E0.02695
G1 X-71.985 Y-49.056 E0.0269
G1 X-71.429 Y-49.086 E0.02315
G1 X71.465 Y-49.088 E5.94084
G1 X72.111 Y-49.048 E0.02691
G1 X72.748 Y-48.929 E0.02694
G1 X73.365 Y-48.732 E0.02693
G1 X74.037 Y-48.415 E0.03089
G1 X74.537 Y-48.134 E0.02385
G1 X75.081 Y-47.782 E0.02694
G1 X75.578 Y-47.366 E0.02695
G1 X76.019 Y-46.892 E0.02692
G1 X76.399 Y-46.368 E0.02691
G1 X76.741 Y-45.737 E0.02984
G1 X76.919 Y-45.347 E0.01782
G1 X77.151 Y-44.742 E0.02694
G1 X77.307 Y-44.113 E0.02694
G1 X77.393 Y-43.171 E0.03933
G1 X77.413 Y-14.335 E1.19886
G1 X77.342 Y-13.472 E0.036
G1 X77.268 Y-13.026 E0.0188
G1 X77.123 Y-12.394 E0.02696
G1 X76.901 Y-11.786 E0.02691
G1 X76.606 Y-11.209 E0.02694
G1 X76.305 Y-10.757 E0.02258
G1 X76.052 Y-10.416 E0.01765
G1 X75.635 Y-9.92 E0.02694
G1 X75.16 Y-9.48 E0.02692
G1 X74.413 Y-8.97 E0.0376
G1 X74.216 Y-8.859 E0.0094
G1 X73.633 Y-8.577 E0.02692
G1 X73.02 Y-8.368 E0.02693
G1 X72.386 Y-8.236 E0.02692
G1 X71.982 Y-8.194 E0.01689
G1 X67.377 Y-7.893 E0.19186
G1 X61.997 Y-7.323 E0.22493
G1 X56.682 Y-6.454 E0.22391
G1 X54.156 Y-5.932 E0.10724
G1 X48.892 Y-4.605 E0.2257
G1 X43.774 Y-3.003 E0.22296
G1 X38.779 Y-1.123 E0.22189
G1 X33.855 Y1.057 E0.22388
G1 X29.095 Y3.493 E0.22231
G1 X24.479 Y6.196 E0.22239
G1 X19.999 Y9.171 E0.22358
G1 X15.717 Y12.378 E0.22242
G1 X11.615 Y15.83 E0.22289
G0 F3600 X11.295 Y15.445
G1 F1800 X7.344 Y19.168 E0.2257
G1 X5.514 Y21.047 E0.10905
G1 X1.881 Y25.107 E0.22651
G1 X-1.462 Y29.296 E0.22282
G1 X-4.589 Y33.707 E0.22479
G1 X-7.448 Y38.265 E0.22369
G1 X-10.078 Y43.037 E0.22653
G1 X-11.42 Y45.67 E0.12287
G1 X-11.735 Y46.199 E0.0256
G1 X-12.269 Y46.848 E0.03494
G1 X-12.476 Y47.058 E0.01226
G1 X-12.936 Y47.467 E0.02559
G1 X-13.445 Y47.814 E0.02561
G1 X-13.995 Y48.092 E0.02562
G1 X-14.62 Y48.309 E0.02751
G1 X-15.068 Y48.43 E0.01929
G1 X-15.672 Y48.551 E0.02561
G1 X-16.308 Y48.594 E0.0265
G1 X-71.466 Y48.588 E2.2932
G1 X-72.08 Y48.548 E0.02558
G1 X-72.685 Y48.429 E0.02563
G1 X-73.269 Y48.232 E0.02562
G1 X-73.789 Y47.98 E0.02402
G1 X-74.288 Y47.7 E0.02379
G1 X-74.805 Y47.365 E0.02561
G1 X-75.274 Y46.965 E0.02563
G1 X-75.687 Y46.508 E0.02561
G1 X-76.037 Y46.001 E0.02561
G1 X-76.348 Y45.387 E0.02861
G1 X-76.532 Y44.946 E0.01987
G1 X-76.732 Y44.363 E0.02562
G1 X-76.854 Y43.759 E0.02562
G1 X-76.898 Y43.117 E0.02675
G1 X-76.896 Y-43.125 E3.58553
G1 X-76.856 Y-43.74 E0.02562
G1 X-76.679 Y-44.544 E0.03423
G1 X-76.586 Y-44.841 E0.01294
G1 X-76.364 Y-45.416 E0.02563
G1 X-76.07 Y-45.957 E0.0256
G1 X-75.685 Y-46.483 E0.0271
G1 X-75.46 Y-46.75 E0.01452
G1 X-75.034 Y-47.194 E0.02558
G1 X-74.553 Y-47.58 E0.02564
G1 X-74.026 Y-47.9 E0.02563
G1 X-73.47 Y-48.146 E0.02528
G1 X-73.071 Y-48.293 E0.01768
G1 X-72.48 Y-48.468 E0.02563
G1 X-71.872 Y-48.565 E0.0256
G1 X-71.429 Y-48.586 E0.01844
G1 X71.465 Y-48.588 E5.94084
G1 X72.08 Y-48.548 E0.02562
G1 X72.684 Y-48.429 E0.02559
G1 X73.268 Y-48.232 E0.02562
G1 X73.792 Y-47.979 E0.02419
G1 X74.292 Y-47.698 E0.02385
G1 X74.809 Y-47.362 E0.02563
G1 X75.277 Y-46.962 E0.0256
G1 X75.69 Y-46.504 E0.02564
G1 X76.04 Y-45.997 E0.02561
G1 X76.286 Y-45.529 E0.02198
G1 X76.464 Y-45.139 E0.01782
G1 X76.683 Y-44.563 E0.02562
G1 X76.826 Y-43.964 E0.0256
G1 X76.893 Y-43.17 E0.03313
G1 X76.913 Y-14.334 E1.19886
G1 X76.849 Y-13.554 E0.03254
G1 X76.775 Y-13.108 E0.0188
G1 X76.635 Y-12.508 E0.02562
G1 X76.418 Y-11.931 E0.02563
G1 X76.129 Y-11.387 E0.02561
G1 X75.904 Y-11.055 E0.01667
G1 X75.651 Y-10.714 E0.01765
G1 X75.252 Y-10.244 E0.02563
G1 X74.796 Y-9.829 E0.02563
G1 X74.168 Y-9.406 E0.03148
G1 X73.971 Y-9.295 E0.0094
G1 X73.415 Y-9.028 E0.02564
G1 X72.83 Y-8.835 E0.02561
G1 X71.949 Y-8.693 E0.0371
G1 X67.341 Y-8.392 E0.19199
G1 X61.934 Y-7.819 E0.22606
G1 X56.57 Y-6.942 E0.22597
G1 X54.053 Y-6.422 E0.10685
G1 X48.757 Y-5.087 E0.22707
G1 X43.627 Y-3.481 E0.22349
G1 X38.574 Y-1.579 E0.22447
G1 X33.641 Y0.605 E0.22429
G1 X28.859 Y3.052 E0.22333
G1 X24.201 Y5.78 E0.22442
G1 X19.728 Y8.75 E0.22323
G1 X15.392 Y11.997 E0.22521
G1 X11.295 Y15.445 E0.22263
G0 F3600 X10.955 Y15.078
G1 F1800 X6.996 Y18.809 E0.22617
G1 X5.137 Y20.718 E0.11078
G1 X1.511 Y24.769 E0.22603
G1 X-1.872 Y29.009 E0.22551
G1 X-5.006 Y33.429 E0.22527
G1 X-7.879 Y38.009 E0.22478
G1 X-10.508 Y42.78 E0.22648
G1 X-11.865 Y45.443 E0.12426
G1 X-12.165 Y45.943 E0.02424
G1 X-12.625 Y46.497 E0.02994
G1 X-12.832 Y46.707 E0.01226
G1 X-13.269 Y47.093 E0.02424
G1 X-13.754 Y47.415 E0.0242
G1 X-14.279 Y47.668 E0.02423
G1 X-14.751 Y47.826 E0.02069
G1 X-15.199 Y47.947 E0.01929
G1 X-15.771 Y48.06 E0.02424
G1 X-16.307 Y48.094 E0.02233
G1 X-71.465 Y48.088 E2.2932
G1 X-72.047 Y48.048 E0.02425
G1 X-72.617 Y47.929 E0.02421
G1 X-73.166 Y47.733 E0.02424
G1 X-73.545 Y47.544 E0.01761
G1 X-74.044 Y47.264 E0.02379
G1 X-74.531 Y46.945 E0.0242
G1 X-74.97 Y46.562 E0.02422
G1 X-75.353 Y46.123 E0.02422
G1 X-75.672 Y45.635 E0.02424
G1 X-75.886 Y45.195 E0.02034
G1 X-76.07 Y44.754 E0.01987
G1 X-76.257 Y44.202 E0.02423
G1 X-76.367 Y43.629 E0.02426
G1 X-76.398 Y43.117 E0.02133
G1 X-76.396 Y-43.125 E3.58553
G1 X-76.356 Y-43.706 E0.02421
G1 X-76.202 Y-44.395 E0.02935
G1 X-76.109 Y-44.692 E0.01294
G1 X-75.897 Y-45.235 E0.02423
G1 X-75.613 Y-45.744 E0.02423
G1 X-75.303 Y-46.161 E0.0216
G1 X-75.078 Y-46.428 E0.01452
G1 X-74.673 Y-46.847 E0.02423
G1 X-74.214 Y-47.206 E0.02423
G1 X-73.711 Y-47.499 E0.0242
G1 X-73.297 Y-47.677 E0.01874
G1 X-72.898 Y-47.824 E0.01768
G1 X-72.339 Y-47.987 E0.02421
G1 X-71.762 Y-48.073 E0.02425
G1 X-71.429 Y-48.086 E0.01386
G1 X71.465 Y-48.088 E5.94084
G1 X72.046 Y-48.048 E0.02421
G1 X72.617 Y-47.929 E0.02425
G1 X73.166 Y-47.733 E0.02424
G1 X73.547 Y-47.543 E0.0177
G1 X74.047 Y-47.262 E0.02385
G1 X74.534 Y-46.942 E0.02423
G1 X74.973 Y-46.559 E0.02422
G1 X75.356 Y-46.119 E0.02425
G1 X75.674 Y-45.631 E0.02422
G1 X75.831 Y-45.322 E0.01441
G1 X76.009 Y-44.932 E0.01782
G1 X76.214 Y-44.386 E0.02425
G1 X76.343 Y-43.818 E0.02422
G1 X76.393 Y-43.17 E0.02702
G1 X76.413 Y-14.334 E1.19886
G1 X76.356 Y-13.635 E0.02916
G1 X76.282 Y-13.189 E0.0188
G1 X76.147 Y-12.622 E0.02423
G1 X75.936 Y-12.079 E0.02422
G1 X75.502 Y-11.353 E0.03517
G1 X75.249 Y-11.012 E0.01765
G1 X74.871 Y-10.569 E0.02421
G1 X74.435 Y-10.181 E0.02427
G1 X73.922 Y-9.841 E0.02559
G1 X73.725 Y-9.73 E0.0094
G1 X73.199 Y-9.48 E0.02421
G1 X72.644 Y-9.303 E0.02422
G1 X71.916 Y-9.192 E0.03062
G1 X67.283 Y-8.889 E0.19303
G1 X61.869 Y-8.315 E0.22635
G1 X56.508 Y-7.44 E0.22583
G1 X53.924 Y-6.905 E0.10971
G1 X48.628 Y-5.57 E0.22707
G1 X43.46 Y-3.952 E0.22514
G1 X38.375 Y-2.038 E0.22589
G1 X33.434 Y0.149 E0.22465
G1 X28.616 Y2.614 E0.225
G1 X23.95 Y5.347 E0.22482
G1 X19.429 Y8.349 E0.22563
G1 X15.087 Y11.602 E0.22556
G1 X10.955 Y15.078 E0.22449
G0 F3600 X10.625 Y14.702
G1 F1800 X6.636 Y18.461 E0.22788
G1 X4.782 Y20.365 E0.11049
G1 X1.126 Y24.449 E0.22789
G1 X-2.269 Y28.705 E0.22634
G1 X-5.413 Y33.139 E0.22598
G1 X-8.316 Y37.767 E0.22713
G1 X-10.957 Y42.559 E0.22748
G1 X-12.311 Y45.216 E0.12398
G1 X-12.594 Y45.684 E0.02274
G1 X-12.981 Y46.146 E0.02506
G1 X-13.188 Y46.356 E0.01226
G1 X-13.6 Y46.716 E0.02275
G1 X-14.06 Y47.013 E0.02276
G1 X-14.558 Y47.24 E0.02275
G1 X-14.881 Y47.343 E0.0141
G1 X-15.329 Y47.464 E0.01929
G1 X-15.867 Y47.568 E0.02278
G1 X-16.307 Y47.594 E0.01832
G1 X-71.465 Y47.588 E2.2932
G1 X-72.011 Y47.548 E0.02276
G1 X-72.546 Y47.429 E0.02279
G1 X-73.3 Y47.108 E0.03407
G1 X-73.799 Y46.828 E0.02379
G1 X-74.256 Y46.526 E0.02277
G1 X-74.663 Y46.161 E0.02273
G1 X-75.013 Y45.74 E0.02276
G1 X-75.299 Y45.273 E0.02277
G1 X-75.425 Y45.002 E0.01243
G1 X-75.609 Y44.561 E0.01987
G1 X-75.782 Y44.042 E0.02274
G1 X-75.878 Y43.503 E0.02276
G1 X-75.898 Y43.117 E0.01607
G1 X-75.896 Y-43.125 E3.58553
G1 X-75.856 Y-43.671 E0.02276
G1 X-75.725 Y-44.246 E0.02452
G1 X-75.632 Y-44.543 E0.01294
G1 X-75.43 Y-45.052 E0.02277
G1 X-75.157 Y-45.526 E0.02274
G1 X-74.921 Y-45.839 E0.0163
G1 X-74.696 Y-46.106 E0.01452
G1 X-74.313 Y-46.497 E0.02276
G1 X-73.878 Y-46.829 E0.02275
G1 X-73.399 Y-47.094 E0.02276
G1 X-73.124 Y-47.208 E0.01238
G1 X-72.725 Y-47.355 E0.01768
G1 X-72.199 Y-47.506 E0.02275
G1 X-71.429 Y-47.586 E0.03219
G1 X71.465 Y-47.588 E5.94084
G1 X72.011 Y-47.548 E0.02276
G1 X72.545 Y-47.429 E0.02275
G1 X73.056 Y-47.234 E0.02274
G1 X73.302 Y-47.107 E0.01151
G1 X73.802 Y-46.826 E0.02385
G1 X74.259 Y-46.524 E0.02277
G1 X74.666 Y-46.158 E0.02276
G1 X75.016 Y-45.737 E0.02276
G1 X75.376 Y-45.114 E0.02991
G1 X75.554 Y-44.724 E0.01782
G1 X75.745 Y-44.211 E0.02276
G1 X75.858 Y-43.675 E0.02277
G1 X75.893 Y-43.17 E0.02105
G1 X75.913 Y-14.334 E1.19886
G1 X75.862 Y-13.717 E0.02574
G1 X75.788 Y-13.271 E0.0188
G1 X75.66 Y-12.739 E0.02275
G1 X75.455 Y-12.232 E0.02274
G1 X75.101 Y-11.651 E0.02829
G1 X74.848 Y-11.31 E0.01765
G1 X74.49 Y-10.895 E0.02279
G1 X74.076 Y-10.537 E0.02275
G1 X73.677 Y-10.277 E0.0198
G1 X73.48 Y-10.166 E0.0094
G1 X72.985 Y-9.933 E0.02275
G1 X72.461 Y-9.774 E0.02277
G1 X71.884 Y-9.691 E0.02424
G1 X67.245 Y-9.388 E0.19328
G1 X61.809 Y-8.812 E0.22727
G1 X56.398 Y-7.928 E0.22795
G1 X53.81 Y-7.392 E0.10988
G1 X48.503 Y-6.055 E0.22753
G1 X43.292 Y-4.423 E0.22702
G1 X38.191 Y-2.503 E0.2266
G1 X33.221 Y-.303 E0.22597
G1 X28.373 Y2.178 E0.22642
G1 X23.672 Y4.931 E0.22649
G1 X19.137 Y7.942 E0.22632
G1 X14.781 Y11.205 E0.22628
G1 X10.625 Y14.702 E0.22582
G0 F3600 X10.277 Y14.343
G1 F1800 X6.3 Y18.09 E0.22717
G1 X4.406 Y20.035 E0.11287
G1 X0.75 Y24.12 E0.22792
G1 X-2.674 Y28.412 E0.22827
G1 X-5.835 Y32.869 E0.22717
G1 X-8.742 Y37.504 E0.22747
G1 X-11.393 Y42.315 E0.22837
G1 X-12.756 Y44.989 E0.12478
G1 X-13.023 Y45.423 E0.02118
G1 X-13.337 Y45.795 E0.02024
G1 X-13.544 Y46.005 E0.01226
G1 X-13.929 Y46.338 E0.02116
G1 X-14.362 Y46.608 E0.02122
G1 X-15.012 Y46.861 E0.029
G1 X-15.46 Y46.982 E0.01929
G1 X-15.96 Y47.075 E0.02114
G1 X-16.307 Y47.094 E0.01445
G1 X-71.465 Y47.088 E2.2932
G1 X-71.973 Y47.048 E0.02119
G1 X-72.469 Y46.929 E0.02121
G1 X-73.055 Y46.672 E0.0266
G1 X-73.554 Y46.392 E0.02379
G1 X-73.978 Y46.109 E0.02119
G1 X-74.352 Y45.763 E0.02118
G1 X-74.667 Y45.363 E0.02117
G1 X-74.963 Y44.809 E0.02611
G1 X-75.147 Y44.368 E0.01987
G1 X-75.306 Y43.884 E0.02118
G1 X-75.387 Y43.381 E0.02118
G1 X-75.398 Y43.117 E0.01099
G1 X-75.396 Y-43.125 E3.58553
G1 X-75.356 Y-43.633 E0.02119
G1 X-75.248 Y-44.096 E0.01977
G1 X-75.155 Y-44.393 E0.01294
G1 X-74.965 Y-44.866 E0.02119
G1 X-74.703 Y-45.303 E0.02118
G1 X-74.538 Y-45.516 E0.0112
G1 X-74.313 Y-45.783 E0.01452
G1 X-73.955 Y-46.146 E0.0212
G1 X-73.545 Y-46.448 E0.02117
G1 X-72.952 Y-46.739 E0.02746
G1 X-72.553 Y-46.886 E0.01768
G1 X-72.062 Y-47.024 E0.0212
G1 X-71.429 Y-47.086 E0.02644
G1 X71.465 Y-47.088 E5.94084
G1 X71.973 Y-47.048 E0.02119
G1 X72.468 Y-46.929 E0.02117
G1 X73.057 Y-46.671 E0.02673
G1 X73.557 Y-46.39 E0.02385
G1 X73.981 Y-46.107 E0.02119
G1 X74.354 Y-45.76 E0.02118
G1 X74.669 Y-45.36 E0.02117
G1 X74.922 Y-44.906 E0.02161
G1 X75.1 Y-44.516 E0.01782
G1 X75.274 Y-44.038 E0.02115
G1 X75.372 Y-43.538 E0.02118
G1 X75.393 Y-43.169 E0.01537
G1 X75.413 Y-14.333 E1.19886
G1 X75.369 Y-13.799 E0.02228
G1 X75.295 Y-13.353 E0.0188
G1 X75.173 Y-12.858 E0.0212
G1 X74.974 Y-12.389 E0.02118
G1 X74.699 Y-11.948 E0.02161
G1 X74.446 Y-11.607 E0.01765
G1 X74.111 Y-11.223 E0.02119
G1 X73.721 Y-10.896 E0.02116
G1 X73.431 Y-10.713 E0.01426
G1 X73.234 Y-10.602 E0.0094
G1 X72.772 Y-10.387 E0.02119
G1 X72.282 Y-10.247 E0.02119
G1 X71.851 Y-10.19 E0.01807
G1 X67.209 Y-9.886 E0.19341
G1 X61.728 Y-9.306 E0.22915
G1 X56.336 Y-8.425 E0.22715
G1 X53.681 Y-7.875 E0.11273
G1 X48.352 Y-6.532 E0.22848
G1 X43.146 Y-4.902 E0.2268
G1 X38.001 Y-2.966 E0.22855
G1 X33.006 Y-.755 E0.2271
G1 X28.123 Y1.744 E0.22805
G1 X23.429 Y4.493 E0.22616
G1 X18.838 Y7.541 E0.22911
